X:1
T:Title
%%score { ( 1 3 ) | 2 }
L:1/8
M:3/4
K:Ab
V:1 treble nm="Grand Piano"
V:3 treble 
V:2 bass 
V:1
 z2 z[Q:1/4=94] [CE] [Ec][=D_c] | [Ec]3 [DB] [CA][DF] | [CE]3 [CE] [CA][Ec] | B3 B ed | c3 c e=d | %5
 e3 A Bc | [Fd]3 [DF] [FA][=EB] | cd c2 B2 |[M:3/8] [CA]3 | [CA][CA][EG] | %10
[M:3/4] [DF]3 [DF] [FA][Fd] | [Ec]3 [Ec] [Ec][DB] | [CA]3 [CA] [Ec][Ee] | B3 d cB | %14
 [CA]3 [DB] [CA][EG] | [DF]3 [Fd] [Fc][FB] | z2 z2 G2 |[M:3/8] [CA]3 |] %18
V:2
 z2 z [A,,A,] [A,,A,][A,,A,] | [A,,A,]3 [A,,E,] [A,,E,][A,,A,] | [A,,A,]3 [A,,A,] [A,,A,][A,,A,] | %3
 [E,G,E]3 [E,G,E] [E,CE][E,B,E] | [A,E]3 [A,E] [A,CA][A,_CA] | [A,CA]3 [A,C] [A,B,_G][A,G] | %6
 [D,A,]3 [D,A,] [D,A,][D,A,] | [E,A,E][E,G,E] [E,A,E]2 [E,D]2 |[M:3/8] [A,,E,]3 | %9
 [A,,A,][A,,A,][C,A,] |[M:3/4] [D,A,]3 [D,A,] [D,A,][D,A,] | [A,,A,]3 [A,,A,] [A,,A,][A,,E,] | %12
 [A,,E,]3 [A,,E,] [A,,A,][C,A,] | [E,G,E]3 [E,B,E] [E,A,E][E,D] | [A,,E,]3 [A,,E,] [A,,E,][C,A,] | %15
 [D,A,]3 [B,,B,] [C,=A,][D,B,] | [E,CE][E,B,D] [E,A,D]2 .[E,B,D]2 |[M:3/8] [A,,E,]3 |] %18
V:3
 x6 | x6 | x6 | x6 | x6 | x6 | x6 | x6 |[M:3/8] x3 | x3 |[M:3/4] x6 | x6 | x6 | x6 | x6 | x6 | %16
 AG F2 z E, |[M:3/8] x3 |] %18

